src/raw/automatic/icon_32.svg

<svg width="32" height="32" viewBox="0 0 32 32" fill="none" xmlns="http://www.w3.org/2000/svg">
<path d="M24.667 19V13L28.667 19V13" stroke="#71717A" stroke-width="1.5" stroke-linecap="round" stroke-linejoin="round"/>
<path d="M28.667 27C28.667 25.9391 28.2456 24.9217 27.4954 24.1716C26.7453 23.4214 25.7279 23 24.667 23V31C25.7279 31 26.7453 30.5786 27.4954 29.8284C28.2456 29.0783 28.667 28.0609 28.667 27Z" stroke="#71717A" stroke-width="1.5" stroke-linecap="round" stroke-linejoin="round"/>
<path d="M24.667 5H26.667C27.1974 5 27.7061 4.78929 28.0812 4.41421C28.4563 4.03914 28.667 3.53043 28.667 3C28.667 2.46957 28.4563 1.96086 28.0812 1.58579C27.7061 1.21071 27.1974 1 26.667 1H24.667V9" stroke="#71717A" stroke-width="1.5" stroke-linecap="round" stroke-linejoin="round"/>
<path d="M6.66699 9V15C6.66699 15.5304 6.87771 16.0391 7.25278 16.4142C7.62785 16.7893 8.13656 17 8.66699 17H10.667C11.1974 17 11.7061 17.2107 12.0812 17.5858C12.4563 17.9609 12.667 18.4696 12.667 19V25C12.667 25.5304 12.8777 26.0391 13.2528 26.4142C13.6279 26.7893 14.1366 27 14.667 27H18.667" stroke="#71717A" stroke-width="1.5" stroke-linecap="round" stroke-linejoin="round"/>
<path d="M6.66699 9C8.87613 9 10.667 7.20914 10.667 5C10.667 2.79086 8.87613 1 6.66699 1C4.45785 1 2.66699 2.79086 2.66699 5C2.66699 7.20914 4.45785 9 6.66699 9Z" stroke="#71717A" stroke-width="1.5" stroke-linecap="round" stroke-linejoin="round"/>
</svg>

<svg xmlns="http://www.w3.org/2000/svg" width="32" height="32" fill="none" viewBox="0 0 32 32">
  <path stroke="#3F3F46" stroke-linecap="round" stroke-linejoin="round" stroke-width="2"
    d="M24.667 19v-6l4 6v-6M28.667 27a4 4 0 0 0-4-4v8a4 4 0 0 0 4-4ZM24.667 5h2a2 2 0 0 0 0-4h-2v8M6.667 9v6a2 2 0 0 0 2 2h2a2 2 0 0 1 2 2v6a2 2 0 0 0 2 2h4M6.667 9a4 4 0 1 0 0-8 4 4 0 0 0 0 8Z" />
</svg>
